style-guide/assets/xd-icons-magnifying-glass-tiny.svg

<svg viewBox="0 0 12 12" xmlns="http://www.w3.org/2000/svg">
  <path d="M8 7.947a.331.331 0 0 0-.027.026l-.027.028A3.486 3.486 0 0 1 5.5 9C3.57 9 2 7.43 2 5.5 2 3.571 3.57 2 5.5 2 7.429 2 9 3.571 9 5.5a3.49 3.49 0 0 1-1 2.447m3.707 2.346L10.03 8.616c.611-.886.97-1.96.97-3.116C11 2.468 8.532 0 5.5 0A5.506 5.506 0 0 0 0 5.5C0 8.533 2.467 11 5.5 11a5.464 5.464 0 0 0 3.115-.97l1.677 1.677a.997.997 0 0 0 1.415 0 1 1 0 0 0 0-1.414" fill="#000" fill-rule="evenodd"/>
</svg>

<?xml version="1.0" encoding="UTF-8"?>
<svg width="12px" height="12px" viewBox="0 0 12 12" version="1.1" xmlns="http://www.w3.org/2000/svg" xmlns:xlink="http://www.w3.org/1999/xlink">
    <!-- Generator: Sketch 51.3 (57544) - http://www.bohemiancoding.com/sketch -->
    <title>search</title>
    <desc>Created with Sketch.</desc>
    <defs></defs>
    <g id="search" stroke="none" stroke-width="1" fill="none" fill-rule="evenodd">
        <path d="M8,7.947 C7.991,7.955 7.981,7.964 7.973,7.973 C7.963,7.982 7.955,7.991 7.946,8.001 C7.315,8.619 6.451,9 5.5,9 C3.57,9 2,7.43 2,5.5 C2,3.571 3.57,2 5.5,2 C7.429,2 9,3.571 9,5.5 C9,6.451 8.618,7.316 8,7.947 M11.707,10.293 L10.03,8.616 C10.641,7.73 11,6.656 11,5.5 C11,2.468 8.532,0 5.5,0 C2.467,0 0,2.468 0,5.5 C0,8.533 2.467,11 5.5,11 C6.655,11 7.729,10.642 8.615,10.03 L10.292,11.707 C10.488,11.903 10.744,12 11,12 C11.255,12 11.511,11.903 11.707,11.707 C12.097,11.317 12.097,10.684 11.707,10.293" id="Fill-1" fill="#000000"></path>
    </g>
</svg>
